X: 1741
T: Gillespie's Hornpipe   #2
R: hornpipe, reel
%S: s:4 b:11(6+5)
B: O'Neill's 1850 #1741
O: J. O'Neill
Z: Bob Safranek, rjs@gsp.org
Z: A.LEE WORMAN
M: 2/4
L: 1/16
K: A
(ed) | cBAc BAGB | Aaga fecA |[1,3 GBEB Bcdf | edcd B2 :|[2,4 GABc defg | a2A2 A2 :|
|: (cd) | eaga eaga | eaga fecA | GABc [1,3 dcde | fedc B2 :|[2,4 defg | a2A2 A2 :|
